X:1
T:Let the Blessèd Savior In
T:Let the Blessèd Savior In
T:Ira David Sankey
T:Frances Jane (Fanny) Crosby, 1902
T:Public Domain Courtesy of the Cyber Hymnal™
C:Ira David Sankey
Z:Public Domain
Z:Courtesy of the Cyber Hymnal™
%%score ( 1 2 ) ( 3 4 )
L:1/8
Q:1/4=100
M:4/4
K:C
V:1 treble 
V:2 treble 
V:3 bass 
V:4 bass 
V:1
 [CE]>[DF] | [EG]2 [^D^F]2 [EG]2 [Gc]2 | [FB]6 [B,D]>[CE] | [DF]2 [^CE]2 [DF]2 [FA]2 | %4
w: 1.~Let the|bless- èd Sav- ior|in, He will|cleanse from ev- ery|
w: 2.~Still His|mer- cy pleads with|thee, Come and|find re- demp- tion|
w: 3.~Still in|pi- ty, lo, He|stands, Reach- ing|forth His wound- ed|
 [EG]6 [EG]>[E^G] | [FA]2 [^FA]2 [GB]2 [=FB]2 | [Ec]6 [Ec]>[^Fd] | [Ge]2 [Ec]2 [Dc]2 [FB]2 | %8
w: sin; He is|wait- ing at thy|door, Hear Him|call- ing o’er and|
w: free; Weak and|help- less tho’ thou|art, He will|bind thy brok- en|
w: hands; Grieve His|pa- tient love no|more, O- pen|now the bolt- ed|
 [Ec]6 ||"^Refrain" GG | d6 GG | e6 [Ge][Ge] | [Gd]2 [GB]2 [^Fc]2 [FA]2 | G6 [CE][DF] | %14
w: o’er.||||||
w: heart.|Let Him|in, let Him|in; Let the|bless- èd Sav- ior|in; Do not|
w: door.||||||
 [EG]2 [Ec]2 [Ge]2 [Gc]2 | [GB]2 [FA]4 [^DB][Dc] | [EG]2 [Ec]2 [Dc]2 [FB]2 | [Ec]6 |] %18
w: ||||
w: keep Him long- er|wait- ing, Let the|bless- èd Sav- ior|in.|
w: ||||
V:2
 x2 | x8 | x8 | x8 | x8 | x8 | x8 | x8 | x6 || GG | (FFFF F2) GG | (GGGG G2) x2 | x8 | (G2 D4) x2 | %14
 x8 | x8 | x8 | x6 |] %18
V:3
 [C,G,]>[C,G,] | [C,C]2 [C,C]2 [C,C]2 [E,C]2 | ([G,D][G,D][G,D][G,D] [G,D]2) G,>G, | %3
 [G,,G,]2 [G,,G,]2 [G,,G,]2 [G,,B,]2 | ([C,C][C,C][C,C][C,C] [C,C]2) [C,C]>[C,C] | %5
 [F,C]2 [D,D]2 [G,D]2 [^G,D]2 | ([A,C][A,C][A,C][A,C] [A,C]2) [A,C]>[_A,C] | %7
 [G,C]2 G,2 [G,,G,]2 [G,,G,]2 | [C,G,]6 || z2 | z ([G,B,][G,B,][G,B,] [G,B,]2) z2 | %11
 z ([C,C][C,C][C,C] [C,C]2) [C,C][C,C] | [D,B,]2 [D,D]2 [D,A,]2 [D,C]2 | %13
 ([G,B,]2 [G,B,] [G,B,] B,2) [E,C][D,G,] | [C,G,]2 [C,G,]2 [C,C]2 [E,C]2 | %15
 [F,C]2 [F,C]4 [^F,A,][F,A,] | [G,C]2 G,2 [G,,G,]2 [G,,G,]2 | [C,G,]6 |] %18
V:4
 x2 | x8 | x6 G,>G, | x8 | x8 | x8 | x8 | x2 G,2 x4 | x6 || x2 | x8 | x8 | x8 | x4 (G,F,) x2 | x8 | %15
 x8 | x2 G,2 x4 | x6 |] %18

